PortableApps/LibreOfficePortable/App/libreoffice/help/media/icon-themes/cmd/sc_cleararrows.svg

<svg viewBox="0 0 16 16" xmlns="http://www.w3.org/2000/svg"><path d="m14 0-5.6503906.68554688 1.1269531 1.67187502-5.1328125 3.3574219a2.5460421 2.5082301.00001167 0 0 -3.2050781-.3125 2.5460421 2.5082301.00001167 0 0 -.71289065 3.4765624 2.5460421 2.5082301.00001167 0 0 3.52929685.703125 2.5460421 2.5082301.00001167 0 0 .3769531-.3046874l3.6894532 2.4140622.2089844-.210937-1.9472657-1.9980471c-.0657498-.0675681-.1036657-.1495857-.1464843-.2285157l-1.2363282-.8085937a2.5460421 2.5082301.00001167 0 0 .1367188-.4453125h1.3378906l1.0546875-1h-2.3886719a2.5460421 2.5082301.00001167 0 0 -.1386718-.4472656l5.1367182-3.359375 1.126954 1.671875zm-3 5v2h-.708984l1.214843 1.2226562 1.873047-1.9199218c.028274-.0289935.064949-.0415763.095703-.0664063zm.511719 9.673828-.021485.021484.046875.00586z" fill="#4d82b8"/><path d="m16 14.149904-2.605902-2.651537 2.50749-2.7777731-1.807553-1.7205858-2.580554 2.6470557-2.632865-2.6470557-1.880616 1.783872 2.632863 2.7031729-2.632863 2.660005 1.880616 1.852942 2.62981-2.77941 2.635919 2.77941z" fill="#e68497"/></svg>

<svg viewBox="0 0 16 16" xmlns="http://www.w3.org/2000/svg">
<path
   style="fill:#4d82b8"
   d="M 14 0 L 8.3496094 0.68554688 L 9.4765625 2.3574219 L 4.34375 5.7148438 A 2.5460421 2.5082301 1.1667109e-05 0 0 1.1386719 5.4023438 A 2.5460421 2.5082301 1.1667109e-05 0 0 0.42578125 8.8789062 A 2.5460421 2.5082301 1.1667109e-05 0 0 3.9550781 9.5820312 A 2.5460421 2.5082301 1.1667109e-05 0 0 4.3320312 9.2773438 L 8.0214844 11.691406 L 8.2304688 11.480469 L 6.2832031 9.4824219 C 6.2174533 9.4148538 6.1795374 9.3328362 6.1367188 9.2539062 L 4.9003906 8.4453125 A 2.5460421 2.5082301 1.1667109e-05 0 0 5.0371094 8 L 6.375 8 L 7.4296875 7 L 5.0410156 7 A 2.5460421 2.5082301 1.1667109e-05 0 0 4.9023438 6.5527344 L 10.039062 3.1933594 L 11.166016 4.8652344 L 14 0 z M 11 5 L 11 7 L 10.291016 7 L 11.505859 8.2226562 L 13.378906 6.3027344 C 13.40718 6.2737409 13.443855 6.2611581 13.474609 6.2363281 L 11 5 z M 11.511719 14.673828 L 11.490234 14.695312 L 11.537109 14.701172 L 11.511719 14.673828 z "
   />
<path
   style="fill:#e68497"
   d="M 16,14.149904 13.394098,11.498367 15.901588,8.7205939 14.094035,7.0000081 11.513481,9.6470638 8.880616,7.0000081 7,8.7838801 9.632863,11.487053 7,14.147058 8.880616,16 11.510426,13.22059 14.146345,16 Z"
   />
</svg>
